!!!!SEGMENT: pl-kozmzk--mzk-m-137--004_cwiklicz-boleslaw-jan--ozdobo-twarzy-wasy-pokretne.krn
!!!cenid: 18xx:2962
!!!COM: Ćwiklicz, Bolesław Jan
!!!COM-rismID: pe41023611
!!!CDT: ~1800-~1899
!!!CNT: Polish
!!!OTL: Ozdobo twarzy, wąsy pokrętne
!!!PDT:
!!!AGN: Secular
!!!SMS-siglum: PL-KOZmzk
!!!SMS-shelfmark: mzk/m/137
!!!SMS-shelfwork: 004 W
!!!SMS-variant:
!!!SMS-altvar:
!!!NIFC-rismSourceID: 1001084050
!!!NIFC-islandoraID: pl-kozmzk:1738
!!!URL-pdf-islandora: https://repozytorium.nifc.pl/islandora/object/pl-kozmzk%3A1738/datastream/PDF/view
!!!URL-scan: https://polish.musicsources.pl/pl/lokalizacje/galeria/rekopisy/450 @EN{Scan on Polish Music Sources Website} @PL{Skany w portalu Dziedzictwo Muzyki Polskiej w otwartym dostępie}
!!!ONB-nifc:
!!!AIN: 2 vox
!!!key:
**kern	**kern	**text	**dynam
*part2	*part1	*part1	*part1
*staff2	*staff1	*staff1	*
*Ivox	*Ivox	*	*
*I"Voce	*I"Voce	*	*
*clefF4	*clefG2	*	*
*k[b-e-a-d-]	*k[b-e-a-d-]	*	*
*D-:	*D-:	*	*
*M3/4	*M3/4	*	*
*	*	*	*below
*>[A,B,A]	*	*	*
*>A	*	*	*
*^	*^	*	*
!	!	!LO:TX:a:t=Związkom śpiewackim Sokoła we Lwowie.	!	!	!
!	!	!LO:TX:a:t=4. Ozdobo Twarzy, wąsy pokrętne...	!	!	!
!LO:TX:a:t=Po polsku\na uroczyście.	!	!LO:TX:a:t=Słowa D. Kniaznina	!	!	!LO:DY:b:rj
8E-/	8AA-\	8cc/	8a-\	O-	mf <
=1	=1	=1	=1	=1	=1
8.E-/L	8.C\L	8.ee-/L	8.a-\L	-zdo-	.
16F/Jk	16D-\Jk	16dd-/Jk	16a-\Jk	-bo	.
4.E-/	4.E-\	4.cc/	(8a-\L	twa-	[ >
.	.	.	8g\J)	.	.
.	.	.	(8f\L	.	.
8E-/	8D-\	8b-/	8g\J)	rzy,	.
=2	=2	=2	=2	=2	=2
8E-/L	8C\L	4a-/	4a-\	wą-	.
16F/L	16D-\L	.	.	.	.
16E-/JJ	16C\JJ	.	.	.	.
8D-/L	8BB-\L	8g/L	8e-\L	-sy	] <
8C/J	8AA-\J	8f/J	8f\J	po-	.
8BB-/L	8GG\L	8e-/L	8e-\L	-krę-	.
16C/L	16AA-\L	[8a-/J	(8e-\J	-tne,	.
16D-/JJ	16BB-\JJ	.	.	.	.
=3	=3	=3	=3	=3	=3
8E-/L	8C\L	8a-/L]	8a-\L)	.	.
8F/	8D-\	8b-/J	8g\	Po-	.
8F/	8C\	8cc/L	8a-\	-wsta-	.
8F/J	8BB-\J	8dd-/J	8a-\J	-je	.
8E-/L	8C\L	8.ff/L	8.a-\L	na	[
8D-/J	8BB-\J	.	.	.	.
.	.	16ee-/Jk	16g\Jk	was	>
=4	=4	=4	=4	=4	=4
8E-/L	(16C\LL	(16ee-/LL	8g\L	ród	.
.	16BB-\)	16dd-/)	.	znie-	.
16E-/L	16AA-\	16cc/	16e-\L	.	.
16E-/JJ	16GG\JJ	16b-/JJ	16e-\JJ	-wie-	.
4E-/	(8AA-\L	4cc/	4a-\	-ścia-	.
.	8BB-\J)	.	.	.	.
8E-/L	8C\L	8a-/L	8a-\L	-ły:	.
!	!	!LO:TX:a:t=muzyka B. Cwiklicza.	!	!	!
8E-/J	8AA-\J	8cc/J	8a-\J	Dwo-	] <
!!LO:LB:g=original
=5	=5	=5	=5	=5	=5
8.E-/L	8.C\L	8.ee-/L	8.a-\L	-ru-	.
16F/Jk	16D-\Jk	16dd-/Jk	16a-\Jk	-ją	[ >
4.E-/	4.E-\	4.cc/	(8a-\L	so-	.
.	.	.	8g\J)	.	.
.	.	.	(8f\L	.	.
8E-/	8D-\	8b-/	8g\J)	bie	.
=6	=6	=6	=6	=6	=6
(8E-/L	(8C\L	4a-/	4a-\	Dzie-	.
16F/L	16D-\L	.	.	.	.
16E-/JJ)	16C\JJ)	.	.	.	.
8D-/L	8BB-\L	8g/L	8e-\L	-wczę-	] <
8C/J	8AA-\J	8f/J	8f\J	-ta	.
8BB-/L	8GG\L	8e-/L	8e-\L	wstrę-	.
16C/L	(16AA-\L	[8a-/J	8e-\J	.	.
16D-/JJ	16BB-\JJ	.	.	.	.
=7	=7	=7	=7	=7	=7
8E-/L	8C\L)	8a-/L]	8a-\L	-tne,	.
8F/J	8D-\J	8b-/J	8g\J	.	.
8F/L	8C\L	8cc/L	8a-\L	da-	.
8F/J	8BB-\J	8dd-/J	8a-\J	-wnej	.
(16E-/LL	(16C\LL	(<8ff/L	8.a-\L	Po-	[
16D-/)	16BB-\)	.	.	.	.
(16E-/	(16C\	16ee-/L)	.	.	.
16F/JJ)	16D-\JJ)	16dd-/JJ	16a-\Jk	-lek	>
=8	=8	=8	=8	=8	=8
8E-/L	(16E-\LL	(16cc/LL	8g\L	da-	.
.	16D-\)	16b-/)	.	.	.
16E-/L	16C\	16a-/	16e-\L	-le-	.
16D-/JJ	16BB-\JJ	16g/JJ	16e-\JJ	-kie	.
4D-/	(8AA-\L	4b-/	4e-\	chwa-	.
.	8GG\J)	.	.	.	.
8C/	8AA-\	8a-/	8e-\	-ły.	.
!	!	!LO:TX:b:t=Fine	!	!	!
8r	8r	8r	8r	.	]
*v	*v	*	*	*	*
*	*v	*v	*	*
!!LO:LB:g=original
*>B	*	*	*
=9||	=9||	=9||	=9||
*k[b-e-a-d-g-]	*k[b-e-a-d-g-]	*	*
*^	*^	*	*
8D-/L	8D-\L	8.f/L	8.f\L	Ko-	??? <
8D-/J	8D-\J	.	.	.	.
.	.	16g-/Jk	16e-\Jk	-mu	.
4D-/	(8D-\L	4a-/	4f\	wstyd	.
.	8C\J)	.	.	.	.
8D-/L	8BB-\L	8.dd-/L	8f\L	ma-	.
8D-/J	8AA-\J	.	8f\J	.	.
.	.	16cc/Jk	.	-tki,	[ >
=10	=10	=10	=10	=10	=10
8D-/L	8GG-\L	8cc/L	8g-\L	o-	.
8D-/J	8GG-\J	16b-/L	8g-\J	-jców	.
.	.	16an/JJ	.	i	.
8D-/	8GG-\L	4.b-/	8g-\	bra-	.
4D-/	(8GG-\	.	4g-\	.	.
.	8AA-\)	.	.	.	.
8D-/	8BB-\J	8g-/	8g-\	-ci,	] <
=11	=11	=11	=11	=11	=11
8E-/L	8C\L	8a-/L	8g-\L	Niech	.
16E-/L	16BB-\L	16b-/L	16g-\L	się	.
16E-/JJ	16AA-\JJ	16cc/JJ	16g-\JJ	z two-	.
(8BB-/L	(4AA-\	4.ff/	4.g-\	-je-	.
8C/	.	.	.	.	.
8D-/)	8BB-\L)	.	.	.	.
8E-/J	8C\J	8ee-/	8a-\	-go	[ >
=12	=12	=12	=12	=12	=12
8F/L	8D-\L	(16ee-/LL	8a-\L	kra-	.
.	.	16dd-/)	.	.	.
8G-/J	8D-\J	16cc/	8a-\J	-ju	.
.	.	16b-/JJ	.	na-	.
8F/L	8D-\L	4.a-/	8a-\L	-trzą-	.
(8E-/J	(8C\J	.	(8a-\J	.	.
8D-/L)	8BB-\L)	.	16g-\LL	.	]
.	.	.	16f\J)	.	.
8E-/J	8C\J	8a-/	8g-\J	-sa,	.
!!LO:LB:g=original
=13	=13	=13	=13	=13	=13
8D-/L	8D-\L	8.f/L	8.f\L	Ja	<
8D-/J	8D-\J	.	.	.	.
.	.	16g-/Jk	16e-\Jk	zaś	.
4D-/	(8D-\L	4a-/	4f\	z o-	.
.	8C\J)	.	.	.	.
8D-/L	8BB-\L	8.dd-/L	8f\L	-jczy-	[
8D-/J	8AA-\J	.	8f\J	.	>
.	.	16cc/Jk	.	-stej	.
=14	=14	=14	=14	=14	=14
8D-/L	8GG-\L	8cc/L	8g-\L	chlu-	.
16D-/L	16GG-\L	16b-/L	16g-\L	bny	.
16D-/JJ	16GG-\JJ	16an/JJ	16g-\JJ	po-	]
(8D-/L	4GG-\	4b-/	4g-\	-sta-	<
16C/L	.	.	.	.	.
16D-/JJ)	.	.	.	.	.
8D-/L	8AA-\L	8g-/L	8g-\L	-ci,	[
8G-/J	8BB-\J	8gg-/J	8dd-\J	żem	.
=15	=15	=15	=15	=15	=15
8A-/L	(8D-\L	(8ff/L	(8dd-\L	je-	.
8A-/J	16E-\L)	16ee-/L)	16cc\L)	.	.
.	16F\JJ	16dd-/JJ	16dd-\JJ	-szcze	.
(8G-/L	(8G-\L	(4bb-/	4.dd-\	Po-	[ f
8E-/J)	8GG-\J)	.	.	.	.
(8F/L	(8AA-\L	8aa-/L)	.	.	>
8G-/J)	8BB-\J)	8gg-/J	8dd-\	-lak,	.
=16	=16	=16	=16	=16	=16
8A-/L	8AA-\L	(16ff/LL	(16dd-\LL	po-	.
.	.	16ee-/)	16cc\)	.	.
16E-/L	16AA-\L	16dd-/	16b-\	-krę-	.
16F/JJ	16AA-\JJ	16cc/JJ	16a-\JJ	-cam	.
(8G-/L	4D-\	4ee-/	4a-\	wą-	.
16F/L	.	.	.	.	.
16E-/JJ)	.	.	.	.	.
!	!	!LO:TX:b:t=D.c.\nal\nFine.	!	!	!
8F/	8D-\	8dd-/	8a-\	-sa.	]
*k[b-e-a-d-gn]	*	*k[b-e-a-d-gn]	*	*	*
*v	*v	*	*	*	*
*	*v	*v	*	*
==	==	==	==
*-	*-	*-	*-
!!!system-decoration: [(s1,s2)]
!!!RDF**kern: > = above
!!!RDF**kern: < = below
!!!ENC: Marcin Jachim
!!!END: 2021-08-11
!!!ENC: Leszek Kubiak
!!!END: 2021-09-08
